Bloom-Colors/scalable/mimetypes/x-office-spreadsheet-symbolic.svg

<svg width="16" height="16" version="1.1" xmlns="http://www.w3.org/2000/svg">
<path d="m3 1c-2 0-2 2-2 2v10c0 2 2 2 2 2h10s2 0 2-2v-10c0-2-2-2-2-2zm1 3h8v7h-8zm1 1v2h2v-2zm3 0v2h3v-2zm-3 3v2h2v-2zm3 0v2h3v-2z" fill="#666"/>
</svg>

<svg xmlns="http://www.w3.org/2000/svg" width="16" height="16" version="1.1">
 <path style="fill:#444444" d="M 3,1 C 1,1 1,3 1,3 V 13 C 1,15 3,15 3,15 H 13 C 13,15 15,15 15,13 V 3 C 15,1 13,1 13,1 Z M 4,4 H 12 V 11 H 4 Z M 5,5 V 7 H 7 V 5 Z M 8,5 V 7 H 11 V 5 Z M 5,8 V 10 H 7 V 8 Z M 8,8 V 10 H 11 V 8 Z"/>
</svg>
